X: 39605
T: Tell Her I Am
R: jig
M: 6/8
K: Gmajor
|:B2d dBG|B2d dBG|AGE c2A|BGE E2 A|
BAB def|gag d2 B|AGE c2A|BGE D3:|
|:efg efg|edB ABd|eaa aga|bge e2 d|
efg efg|edB g2 a|bge dBG|AGE D3:|

